X:27
T:Nautical Hornpipe,The. JJo.027
T:Manchester Hornpipe,aka. JJo.027
T:Ricketts Hornpipe,aka. JJo.027
S:J.Jones MS,1801,N.Shrops.
N:One of the most well known hp’s.
N:aka The Manchester, Yarmouth etc. written ‘dotted’. NeilB.
A:N Shropshire
Z:Neil Brookes 2006
M:4/4
L:1/8
Q:1/8=300
K:C
GA/B/|c>Bc>G E>Gc>e|d>cB>A G>Bd>f|f>ed>c B>Af>d|B>cd>B G>fe>d|!
{d}c>Bc>G E>Gc>e|d>cB>A G>Bd>f|e>ge>c d>fd>B|c2c2c2:|!
|:e>f|g>ee>c c>ee>g|a>ff>d B>dd>f|g>ee>c a>fd>c|B>cA>B G>fe>d|!
c>Bc>G E>Gc>e|f>ed>c B>AG>F|E>ge>c D>fd>B|[c2E2][c2E2][c2E2]:|

